X:1
T:Title
%%score 1 { 2 | 3 }
L:1/8
Q:1/4=110
M:2/2
K:D
V:1 treble nm="Grand Piano, Soprano"
V:2 bass nm="Choir Pad, Yukon, William F. Sherwin"
V:3 bass 
V:1
 [FA]4 [GB]2 [FA]2 | [=F^G]2 [^FA]2 [DF]4 | [CE]4 [CA]2 [EG]2 | .[DF]8 | [FA]4 [GB]2 [FA]2 | %5
w: By~William~Fiske~Sherwin,~1881 * *|||||
 [=F^G]2 [^FA]2 [DF]4 | [CE]4 [EA]2 [D^G]2 | .[CA]8 | [Ec]4 [GB]2 [GA]2 | [Fd]2 [GB]2 [FA]4 | %10
w: |||||
 [EG]4 [^DF]2 [EG]2 | [GB]2 [FA]2 [DF]4 | [FA]4 [CG]2 [DF]2 | [DB]2 [Gc]2 [Fd]2 [GB]2 | %14
w: ||||
 [FA]4 [EG]2 [CE]2 | D8 |] %16
w: ||
V:2
 A,4 G,2 A,2 | B,2 A,2 A,4 | A,4 E,2 A,2 | .A,8 | D4 D2 D2 | B,2 A,2[K:bass] A,4 | A,4 C2 B,2 | %7
 .A,8 | A,4[K:treble] C2 E2 | D2 D2 D4 | C4 C2 C2 | D2 D2[K:bass] A,4 | A,4 A,2 A,2 | %13
 G,2 A,2 A,2 D2 | D4 A,2 G,2 | F,8 |] %16
V:3
 D,4 D,2 D,2 | D,2 D,2 D,4 | A,,4 A,,2 A,,2 | .D,8 | D,4 D,2 D,2 | D,2 D,2 D,4 | E,4 E,2 E,2 | %7
 .A,,8 | z4 A,2 A,2 | D,2 D,2 D,4 | A,,4 A,,2 A,,2 | D,2 D,2 D,4 | D,4 E,2 F,2 | z2 E,2 D,2 G,,2 | %14
 A,,4 A,,2 A,,2 | D,8 |] %16

